packages/components/icon/src/assets/icons/users-remove.svg

<svg width="24" height="24" viewBox="0 0 24 24" fill="none" xmlns="http://www.w3.org/2000/svg">
<path fill-rule="evenodd" clip-rule="evenodd" d="M11.068 2.46484C11.849 2.46484 12.5685 2.65647 13.2266 3.03974C13.8846 3.42301 14.4053 3.94366 14.7886 4.60172C15.1718 5.25979 15.3635 5.9793 15.3635 6.7603C15.3635 7.35328 15.302 7.84139 15.1791 8.22466C15.0561 8.60792 14.85 8.98034 14.5608 9.34191C14.2715 9.70348 13.8159 10.1735 13.194 10.752C12.3697 11.5186 11.8092 12.2453 11.5127 12.9323C11.2162 13.6193 11.068 14.4473 11.068 15.4163C11.068 16.1394 11.1873 16.83 11.426 17.4881C11.6646 18.1461 12.0009 18.7427 12.4347 19.2779C12.4926 19.3936 12.5215 19.4586 12.5215 19.4731C12.5215 19.5888 12.4347 19.6467 12.2612 19.6467H4.86346C4.47296 19.6467 4.1367 19.5057 3.85468 19.2236C3.57265 18.9416 3.43164 18.6053 3.43164 18.2148V14.8739C3.43164 14.2086 3.68474 13.5831 4.19094 12.9974C4.69714 12.4116 5.39858 11.9163 6.29528 11.5113C7.19198 11.1064 8.20436 10.8316 9.33247 10.687C8.56593 10.3398 7.94766 9.81557 7.47761 9.11412C7.00757 8.41267 6.77255 7.62807 6.77255 6.7603C6.77255 5.9793 6.96418 5.25979 7.34745 4.60172C7.73071 3.94366 8.25137 3.42301 8.90943 3.03974C9.56749 2.65647 10.287 2.46484 11.068 2.46484ZM17.2725 10.1663C18.2271 10.1663 19.1057 10.4013 19.9084 10.8714C20.7111 11.3414 21.3474 11.9778 21.8175 12.7804C22.2875 13.5831 22.5225 14.4617 22.5225 15.4163C22.5225 16.3564 22.2875 17.2314 21.8175 18.0413C21.3474 18.8512 20.7111 19.4912 19.9084 19.9612C19.1057 20.4313 18.2271 20.6663 17.2725 20.6663C16.318 20.6663 15.4394 20.4313 14.6367 19.9612C13.834 19.4912 13.1977 18.8512 12.7276 18.0413C12.2576 17.2314 12.0225 16.3564 12.0225 15.4163C12.0225 14.4617 12.2576 13.5831 12.7276 12.7804C13.1977 11.9778 13.834 11.3414 14.6367 10.8714C15.4394 10.4013 16.318 10.1663 17.2725 10.1663ZM17.2726 11.1208C16.4916 11.1208 15.772 11.3125 15.114 11.6957C14.4559 12.079 13.9353 12.5997 13.552 13.2577C13.1687 13.9158 12.9771 14.6353 12.9771 15.4163C12.9771 16.1973 13.1687 16.9168 13.552 17.5749C13.9353 18.2329 14.4559 18.7536 15.114 19.1368C15.772 19.5201 16.4916 19.7117 17.2726 19.7117C18.0535 19.7117 18.7731 19.5201 19.4311 19.1368C20.0892 18.7536 20.6098 18.2329 20.9931 17.5749C21.3764 16.9168 21.568 16.1973 21.568 15.4163C21.568 14.6353 21.3764 13.9158 20.9931 13.2577C20.6098 12.5997 20.0892 12.079 19.4311 11.6957C18.7731 11.3125 18.0535 11.1208 17.2726 11.1208ZM13.9316 14.4617H20.6135V16.3708H13.9316V14.4617Z" fill="currentColor"/>
</svg>

<svg viewBox="0 0 24 24" fill="none" xmlns="http://www.w3.org/2000/svg"><path fill-rule="evenodd" clip-rule="evenodd" d="M11.068 2.465c.781 0 1.5.191 2.159.575a4.26 4.26 0 0 1 1.562 1.562c.383.658.575 1.377.575 2.158 0 .593-.062 1.081-.185 1.465a3.51 3.51 0 0 1-.618 1.117c-.29.361-.745.832-1.367 1.41-.824.767-1.385 1.493-1.681 2.18-.297.687-.445 1.515-.445 2.484 0 .723.12 1.414.358 2.072a6.151 6.151 0 0 0 1.009 1.79c.058.116.086.18.086.195 0 .116-.086.174-.26.174H4.863c-.39 0-.726-.141-1.008-.423a1.377 1.377 0 0 1-.423-1.01v-3.34c0-.665.253-1.29.759-1.877.506-.585 1.208-1.08 2.104-1.486.897-.405 1.91-.68 3.037-.824a4.354 4.354 0 0 1-1.854-1.573 4.134 4.134 0 0 1-.705-2.354c0-.78.191-1.5.574-2.158A4.258 4.258 0 0 1 8.91 3.04a4.213 4.213 0 0 1 2.159-.575Zm6.205 7.701a5.12 5.12 0 0 1 2.635.705 5.254 5.254 0 0 1 1.91 1.91c.47.802.704 1.68.704 2.635a5.14 5.14 0 0 1-.704 2.625 5.228 5.228 0 0 1-1.91 1.92 5.122 5.122 0 0 1-2.636.705 5.122 5.122 0 0 1-2.635-.705 5.228 5.228 0 0 1-1.91-1.92 5.141 5.141 0 0 1-.704-2.625c0-.954.235-1.833.705-2.636a5.254 5.254 0 0 1 1.909-1.909 5.122 5.122 0 0 1 2.636-.705Zm0 .955c-.781 0-1.501.191-2.159.575a4.259 4.259 0 0 0-1.562 1.562 4.213 4.213 0 0 0-.575 2.158c0 .781.192 1.5.575 2.159a4.258 4.258 0 0 0 1.562 1.562 4.212 4.212 0 0 0 2.159.575c.78 0 1.5-.192 2.158-.575a4.258 4.258 0 0 0 1.562-1.562 4.213 4.213 0 0 0 .575-2.159c0-.78-.192-1.5-.575-2.158a4.259 4.259 0 0 0-1.562-1.562 4.213 4.213 0 0 0-2.158-.575Zm-3.341 3.34h6.681v1.91h-6.681v-1.91Z" fill="currentColor"/></svg>
